X: 1
T:A and A's Waltz
% Nottingham Music Database
S:Mick Peat
M:3/4
L:1/4
K:G
e|"G"d2B|"D"A3/2B/2c|"G"B2G|"D"A2e|"G"d2B|"D"A3/2B/2c|[M:2/4]"F"B=F|[M:3/4]"G"G2e:|
"C"g2e|"Bb"=f2d|"F"c2A|=F2e|"C"g2e|"Bb"=f2d|[M:2/4]"F"cA|[M:3/4] [1 "G"G2e:| [2"G"G2z||


